build/img/sprite/icon-rating.svg

<svg width="32" height="32" viewBox="0 0 32 32" fill="none" xmlns="http://www.w3.org/2000/svg">
<mask fill="white">
<path fill-rule="evenodd" clip-rule="evenodd" d="M3 0C1.89543 0 1 0.895431 1 2V25C1 26.1046 1.89543 27 3 27H10.8904L14.5858 30.6954C15.3668 31.4765 16.6332 31.4765 17.4142 30.6954L21.1096 27H29C30.1046 27 31 26.1046 31 25V2C31 0.895431 30.1046 0 29 0H3Z"/>
</mask>
<path d="M10.8904 27L12.3046 25.5858L11.7188 25H10.8904V27ZM14.5858 30.6954L13.1716 32.1096H13.1716L14.5858 30.6954ZM17.4142 30.6954L16 29.2812H16L17.4142 30.6954ZM21.1096 27V25H20.2812L19.6954 25.5858L21.1096 27ZM3 2V2V-2C0.790861 -2 -1 -0.209138 -1 2H3ZM3 25V2H-1V25H3ZM3 25H3H-1C-1 27.2091 0.790861 29 3 29V25ZM10.8904 25H3V29H10.8904V25ZM16 29.2812L12.3046 25.5858L9.47616 28.4142L13.1716 32.1096L16 29.2812ZM16 29.2812H16L13.1716 32.1096C14.7337 33.6717 17.2663 33.6717 18.8284 32.1096L16 29.2812ZM19.6954 25.5858L16 29.2812L18.8284 32.1096L22.5238 28.4142L19.6954 25.5858ZM29 25H21.1096V29H29V25ZM29 25V29C31.2091 29 33 27.2091 33 25H29ZM29 2V25H33V2H29ZM29 2H33C33 -0.209138 31.2091 -2 29 -2V2ZM3 2H29V-2H3V2Z" fill="#49CCC4" mask="url(#path-1-inside-1)"/>
<path d="M19.8585 16.2323L20.8442 16.0632L19.8585 16.2323L20.5497 20.2622L16.9307 18.3595C16.348 18.0532 15.652 18.0532 15.0693 18.3595L11.4503 20.2622L12.1415 16.2323C12.2527 15.5835 12.0376 14.9215 11.5663 14.462L8.6384 11.6081L12.6846 11.0201C13.336 10.9255 13.8992 10.5163 14.1905 9.92604L16 6.25955L17.8095 9.92604C18.1008 10.5163 18.664 10.9255 19.3154 11.0201L23.3616 11.6081L20.4337 14.462C19.9624 14.9215 19.7473 15.5835 19.8585 16.2323Z" stroke="#49CCC4" stroke-width="2"/>
</svg>

<svg width="32" height="32" fill="none" xmlns="http://www.w3.org/2000/svg"><path d="M10.89 27l1.415-1.414-.586-.586h-.829v2zm3.696 3.695l-1.414 1.415 1.414-1.415zm2.828 0L16 29.281l1.414 1.414zM21.11 27v-2h-.829l-.586.586L21.11 27zM3 2v-4a4 4 0 00-4 4h4zm0 23V2h-4v23h4zm0 0h-4a4 4 0 004 4v-4zm7.89 0H3v4h7.89v-4zM16 29.281l-3.695-3.695-2.829 2.828 3.696 3.696L16 29.28zm0 0l-2.828 2.829a4 4 0 005.656 0L16 29.28zm3.695-3.695L16 29.28l2.828 2.829 3.696-3.696-2.829-2.828zM29 25h-7.89v4H29v-4zm0 0v4a4 4 0 004-4h-4zm0-23v23h4V2h-4zm0 0h4a4 4 0 00-4-4v4zM3 2h26v-4H3v4z" fill="#49CCC4" mask="url(#path-1-inside-1)"/><path d="M19.858 16.232l.986-.169-.986.17.692 4.03-3.62-1.904a2 2 0 00-1.86 0l-3.62 1.903.692-4.03a2 2 0 00-.576-1.77l-2.928-2.854 4.047-.588a2 2 0 001.505-1.094L16 6.26l1.81 3.666a2 2 0 001.505 1.094l4.047.588-2.928 2.854a2 2 0 00-.576 1.77z" stroke="#49CCC4" stroke-width="2"/></svg>
